!!!COM: Palestrina, Giovanni Perluigi da
!!!OPR: Ut re mi fa sol la
!!!OTL: Credo
**kern	**kern	**kern	**kern	**kern	**kern
*Ibass	*Itenor	*Icalto	*Icalto	*Icant	*Icant
!Bassus	!Tenor	!Altus 2	!Altus 1	!Cantus 2	!Cantus 1
*clefF4	*clefGv2	*clefG2	*clefG2	*clefG2	*clefG2
*k[]	*k[]	*k[]	*k[]	*k[]	*k[]
*C:ion	*C:ion	*C:ion	*C:ion	*C:ion	*C:ion
*M4/2	*M4/2	*M4/2	*M4/2	*M4/2	*M4/2
=1	=1	=1	=1	=1	=1
0r	1G	1d	0r	0r	0r
.	2G	2d	.	.	.
.	2G	2d	.	.	.
=2	=2	=2	=2	=2	=2
0r	1c	1e	0r	0r	1g
.	1e	2c	.	.	2g
.	.	[2g	.	.	2g
=3	=3	=3	=3	=3	=3
0r	0d	2g]	0r	0r	2a
.	.	4f	.	.	2a
.	.	4e	.	.	.
.	.	1f#	.	.	1a
=4	=4	=4	=4	=4	=4
2r	2G	1g	2r	1g	2b
2C	2c	.	2e	.	2ee
2C	2c	1r	2e	2g	2ee
2C	2c	.	2e	2g	2ee
=5	=5	=5	=5	=5	=5
1F	1A	0r	1f	1a	1cc
2A	2c	.	2e	2a	2cc
2A	2c	.	2e	2a	2cc
=6	=6	=6	=6	=6	=6
1G	1B	0r	1g	1b	1dd
1E	1G	.	1g	1b	1ee
=7	=7	=7	=7	=7	=7
2.C	2.c	2.e	2.g	2.cc	2.ee
4C	4c	4e	4g	4cc	4ee
2F	2A	2c	2a	2cc	2ff
2F	2A	2c	2a	2cc	2ff
=8	=8	=8	=8	=8	=8
1D	1d	1f	1a	1dd	1ff
2G	2B	2d	2g	2dd	2gg
2G	2B	2d	2g	2dd	2gg
=9	=9	=9	=9	=9	=9
1C	0c	0c	2e	0ee	1gg
.	.	.	2.g	.	.
2.c	.	.	.	.	2r
.	.	.	4f	.	.
.	.	.	4e	.	[2gg
4B	.	.	4d	.	.
=10	=10	=10	=10	=10	=10
1A	0r	1.cc	1c	0r	2gg]
.	.	.	.	.	2ff
1G	.	.	1g	.	2ee
.	.	2b	.	.	2dd
=11	=11	=11	=11	=11	=11
2A	0r	2a	1e	0r	2cc
2E	.	2g	.	.	2.b
2.A	.	2f	1c	.	.
.	.	.	.	.	4a
.	.	[2e	.	.	[2a
4c	.	.	.	.	.
=12	=12	=12	=12	=12	=12
2B	0r	4e]	2d	0r	2a]
.	.	4d	.	.	.
2B	.	1d	2d	.	2g#
1A	.	.	1e	.	[1a
.	.	4c	.	.	.
.	.	4B	.	.	.
=13	=13	=13	=13	=13	=13
2r	1A	2c#	2r	1.ee	1a]
1A	.	1e	1a	.	.
.	1c#	.	.	.	1r
2A	.	2e	2a	2ee	.
=14	=14	=14	=14	=14	=14
2D	2d	2f#	2a	2dd	0r
2D	2d	2f#	2a	2dd	.
2G	2B	2g	2d	2dd	.
2G	2B	2g	2d	2dd	.
=15	=15	=15	=15	=15	=15
1C	1c	1e	1g	1cc	0r
1F	1A	1f	1a	1cc	.
=16	=16	=16	=16	=16	=16
0G	1.B	1d	2.g	0b	0r
.	.	.	8f	.	.
.	.	.	8e	.	.
.	.	[1g	1d	.	.
.	2G	.	.	.	.
=17	=17	=17	=17	=17	=17
0D	1A	2g]	0d	0a	0r
.	.	4f	.	.	.
.	.	4e	.	.	.
.	1d	1f#	.	.	.
=18	=18	=18	=18	=18	=18
0G	2B	2g	2d	0g	2r
.	2G	2b	2g	.	2dd
.	2G	2b	2g	.	2dd
.	2G	2b	2g	.	2dd
=19	=19	=19	=19	=19	=19
0r	2c	2.cc	2g	0r	2.ee
.	2c	.	2e	.	.
.	.	4b	.	.	4dd
.	2F	2a	2f	.	2cc
.	2G	2g	2d	.	2b
=20	=20	=20	=20	=20	=20
0r	2A	4f	2c	0r	2a
.	.	4e	.	.	.
.	2A	4e	2c	.	1cc
.	.	8d	.	.	.
.	.	8c	.	.	.
.	1G	2d	1g	.	.
.	.	2d	.	.	2b
=21	=21	=21	=21	=21	=21
1C	2r	1e	2r	1.g	1cc
.	1c	.	1e	.	.
1G	.	1r	.	.	1r
.	2B	.	2d	2g	.
=22	=22	=22	=22	=22	=22
2F	2c	0r	2f	2a	0r
2D	2d	.	2f	2a	.
1A	1c	.	1e	1a	.
=23	=23	=23	=23	=23	=23
2G	1d	2r	1g	2b	2r
1G	.	1g	.	1b	1dd
.	1r	.	1r	.	.
2G	.	2g	.	2b	2dd
=24	=24	=24	=24	=24	=24
1c	0r	1g	0r	1cc	1ee
2A	.	2a	.	2cc	2ee
2A	.	2e	.	2cc	[2cc
=25	=25	=25	=25	=25	=25
1G	0r	1g	0r	1dd	2cc]
.	.	.	.	.	4b
.	.	.	.	.	4a
1G	.	1g	.	1dd	2b
.	.	.	.	.	2b
=26	=26	=26	=26	=26	=26
0C	1r	1.g	1r	0ee	1cc
.	1c	.	2r	.	2r
.	.	2g	2cc	.	2ee
=27	=27	=27	=27	=27	=27
0r	2c	2g	2cc	0r	2ee
.	2c	2g	2cc	.	2ee
.	1G	1g	1b	.	1dd
=28	=28	=28	=28	=28	=28
2r	2c	2e	2g	1ee	2cc
2c	2e	2c	2g	.	2cc
2c	2e	2.e	2g	2ee	2cc
2c	2c	.	2g	2ee	2cc
.	.	4f	.	.	.
=29	=29	=29	=29	=29	=29
2G	2d	2g	2g	2dd	2b
2G	2d	2G	2g	2dd	2b
1D	2d	1A	1f	1dd	1a
.	[2A	.	.	.	.
=30	=30	=30	=30	=30	=30
1A	2A]	1a	1.e	1cc	2r
.	2.c	.	.	.	1ee
1c	.	1g	.	1cc	.
.	4d	.	.	.	.
.	4e	.	2c	.	2ee
.	4f	.	.	.	.
=31	=31	=31	=31	=31	=31
1G	2g	1g	2d	1b	1dd
.	1G	.	1B	.	.
2E	.	2g	.	2b	2ee
2E	2G	2g	[2e	2b	2ee
=32	=32	=32	=32	=32	=32
1A	1c	1e	2e]	1a	1.cc
.	.	.	2.A	.	.
1F	2A	1f	.	1a	.
.	.	.	4G	.	.
.	2F	.	4A	.	2dd
.	.	.	4B	.	.
=33	=33	=33	=33	=33	=33
1C	0G	1e	2c	0g	2ee
.	.	.	2.g	.	1cc
1G	.	1d	.	.	.
.	.	.	4f	.	.
.	.	.	2d	.	2b
=34	=34	=34	=34	=34	=34
0C	1G	1c	1e	0g	1cc
.	2.c	2.e	1r	.	2.g
.	4c	4e	.	.	4g
=35	=35	=35	=35	=35	=35
0r	2A	2e	2.c	0r	2a
.	2A	2f#	.	.	2a
.	.	.	4c	.	.
.	1G	1g	2d	.	1b
.	.	.	2d	.	.
=36	=36	=36	=36	=36	=36
1r	1c	1g	2e	1r	1cc
.	.	.	2e	.	.
2.c	2.e	1r	2r	2.g	2.cc
.	.	.	[2e	.	.
4c	4e	.	.	4g	4cc
=37	=37	=37	=37	=37	=37
2A	2c	0r	2e]	2a	2cc
2A	2c	.	2e	2a	2cc
1G	2B	.	2g	1b	1dd
.	2d	.	2g	.	.
=38	=38	=38	=38	=38	=38
2C	1c	0r	2g	1cc	1ee
1c	.	.	2g	.	.
.	1G	.	1g	1dd	1dd
2B	.	.	.	.	.
=39	=39	=39	=39	=39	=39
2c	2r	2r	1g	1ee	2cc
2C	1g	1cc	.	.	1ee
1G	.	.	1r	1r	.
.	2g	2b	.	.	2dd
=40	=40	=40	=40	=40	=40
2A	2e	2a	0r	0r	2cc
2F	2f	2a	.	.	2cc
1G	1d	2g	.	.	1b
.	.	[2g	.	.	.
=41	=41	=41	=41	=41	=41
2D	2d	2g]	0r	0r	2a
2D	2d	2f#	.	.	2a
1G	1d	1g	.	.	1g
=42	=42	=42	=42	=42	=42
1C	2r	0r	1g	1ee	1cc
.	2c	.	.	.	.
2G	2c	.	2g	2dd	2dd
2G	2B	.	2g	2dd	2dd
=43	=43	=43	=43	=43	=43
1C	1c	0r	1g	1cc	1ee
1r	2G	.	2g	2b	2dd
.	2G	.	2g	2b	2dd
=44	=44	=44	=44	=44	=44
1r	1d	1r	1f#	1a	[0dd
1G	1B	1d	2r	1g	.
.	.	.	2g	.	.
=45	=45	=45	=45	=45	=45
2D	2A	2d	2g	2a	0dd]
2D	2A	2d	2f#	2a	.
1G	2G	1d	1g	1b	.
.	2B	.	.	.	.
=46	=46	=46	=46	=46	=46
2F	2A	2f	2a	2cc	0r
2E	1c	2g	2g	2cc	.
1D	.	2a	1f	1dd	.
.	2B	2d	.	.	.
=47	=47	=47	=47	=47	=47
0C	1c	1g	1e	1ee	1r
.	1c	1g	2r	1r	1ee
.	.	.	[2cc	.	.
=48	=48	=48	=48	=48	=48
0r	1G	1g	2cc]	0r	1dd
.	.	.	1b	.	.
.	2A	2e	.	.	1cc
.	2F	2f	[2a	.	.
=49	=49	=49	=49	=49	=49
0r	1G	0d	2a]	0r	1b
.	.	.	1g	.	.
.	1d	.	.	.	1a
.	.	.	2f#	.	.
=50	=50	=50	=50	=50	=50
1r	1G	2d	1g	1r	1g
.	.	2g	.	.	.
1C	1G	2e	2r	1ee	1cc
.	.	2c	2g	.	.
=51	=51	=51	=51	=51	=51
1G	1B	2d	1g	1dd	2b
.	.	1g	.	.	2b
1C	1c	.	1e	1cc	1ee
.	.	[2G	.	.	.
=52	=52	=52	=52	=52	=52
1G	2d	4G]	2g	1b	0dd
.	.	4A	.	.	.
.	2G	4B	2.g	.	.
.	.	4c	.	.	.
1D	1A	1d	.	1a	.
.	.	.	8f	.	.
.	.	.	8e	.	.
.	.	.	2f#	.	.
=53	=53	=53	=53	=53	=53
0G	0B	0d	0g	0g	0dd
=54	=54	=54	=54	=54	=54
0G	0r	0d	0r	0g	0b
=55	=55	=55	=55	=55	=55
1c	0r	1e	0r	1g	1cc
1e	.	2c	.	1g	1cc
.	.	[2g	.	.	.
=56	=56	=56	=56	=56	=56
1d	0r	2g]	0r	1a	1dd
.	.	4f	.	.	.
.	.	4e	.	.	.
1d	.	2f#	.	1a	1dd
.	.	2f#	.	.	.
=57	=57	=57	=57	=57	=57
0G	1r	1g	1r	1b	0dd
.	1G	1g	1d	1b	.
=58	=58	=58	=58	=58	=58
0r	1c	1g	2e	1cc	0r
.	.	.	2e	.	.
.	1e	1g	2c	1cc	.
.	.	.	[2g	.	.
=59	=59	=59	=59	=59	=59
0r	1d	1a	2g]	1dd	0r
.	.	.	4f	.	.
.	.	.	4e	.	.
.	1d	2a	1f#	1dd	.
.	.	2b	.	.	.
=60	=60	=60	=60	=60	=60
2r	0c	2cc	2g	1ee	2r
1C	.	1cc	1g	.	1ee
.	.	.	.	1r	.
2C	.	2cc	2g	.	2ee
=61	=61	=61	=61	=61	=61
1G	0r	1b	1g	0r	1dd
1G	.	1b	1g	.	1dd
=62	=62	=62	=62	=62	=62
1A	0r	1a	1e	0r	1cc
1F	.	1a	1f	.	1cc
=63	=63	=63	=63	=63	=63
0G	0r	0g	0d	0r	0b
=64	=64	=64	=64	=64	=64
0C	0c	1g	0e	0ee	0cc
.	.	[1g	.	.	.
=65	=65	=65	=65	=65	=65
0G	1d	2g]	0g	0dd	0b
.	.	4f	.	.	.
.	.	4e	.	.	.
.	1G	1d	.	.	.
=66	=66	=66	=66	=66	=66
0C	2r	2.g	2.e	0cc	0ee
.	1G	.	.	.	.
.	.	4f	4d	.	.
.	.	2e	1c	.	.
.	2A	2c	.	.	.
=67	=67	=67	=67	=67	=67
0G	2B	4d	2r	0b	0dd
.	.	4c	.	.	.
.	2.G	4B	1d	.	.
.	.	4A	.	.	.
.	.	2B	.	.	.
.	4A	.	.	.	.
.	4B	2G	[2g	.	.
.	4c	.	.	.	.
=68	=68	=68	=68	=68	=68
0D	1d	2A	2g]	0a	0dd
.	.	2.d	4f	.	.
.	.	.	4e	.	.
.	2r	.	1f#	.	.
.	.	4c	.	.	.
.	[2d	2A	.	.	.
=69	=69	=69	=69	=69	=69
0G	4d]	2B	1g	[0g	2.b
.	4c	.	.	.	.
.	4B	2G	.	.	.
.	4A	.	.	.	4cc
.	1B	2.g	1d	.	1dd
.	.	4f	.	.	.
=70	=70	=70	=70	=70	=70
0C	2.c	1e	1c	0g]	0ee
.	8B	.	.	.	.
.	8A	.	.	.	.
.	1G	1c	1cc	.	.
=71	=71	=71	=71	=71	=71
[0G	[0G	[0d	[0b	[0g	[0dd
=72	=72	=72	=72	=72	=72
0G]	0G]	0d]	0b]	0g]	0dd]
*	*	*	*	*-	*-
!! Crucifixus
*Icalto	*Icalto	*Icant	*Icant
!Altus 2	!Altus 1	!Cantus 2	!Cantus 1
*clefG2	*clefG2	*clefG2	*clefG2
*k[]	*k[]	*k[]	*k[]
*C:ion	*C:ion	*C:ion	*C:ion
*M4/2	*M4/2	*M4/2	*M4/2
=73	=73	=73	=73
2r	0r	1a	0r
1g	.	.	.
.	.	1g	.
2f#	.	.	.
=74	=74	=74	=74
1g	0r	1b	0r
2c	.	1cc	.
[2cc	.	.	.
=75	=75	=75	=75
2cc]	0r	1dd	0r
2b	.	.	.
2a	.	1ee	.
2g	.	.	.
=76	=76	=76	=76
4f	0r	1dd	0r
4e	.	.	.
4d	.	.	.
4e	.	.	.
4f	.	1cc	.
4g	.	.	.
[2a	.	.	.
=77	=77	=77	=77
4a]	0r	1b	0r
4g	.	.	.
1g	.	.	.
.	.	1a	.
2f	.	.	.
=78	=78	=78	=78
1e	2r	1g	2r
.	1g	.	2g
1d	.	1r	1a
.	2f#	.	.
=79	=79	=79	=79
2r	1g	0r	1b
1g	.	.	.
.	2c	.	1cc
2e	[2cc	.	.
=80	=80	=80	=80
2f	2cc]	0r	1dd
2g	2b	.	.
4c	2a	.	1ee
4d	.	.	.
4e	2g	.	.
4c	.	.	.
=81	=81	=81	=81
4d	4f	0r	1dd
4e	4e	.	.
4f	4d	.	.
4g	4e	.	.
2a	4f	.	1cc
.	4g	.	.
2f	[2a	.	.
=82	=82	=82	=82
1g	4a]	0r	1b
.	4g	.	.
.	1g	.	.
1d	.	.	1a
.	2f#	.	.
=83	=83	=83	=83
2r	1g	2r	1g
2e	.	2g	.
2f	1r	2a	1r
2g	.	2b	.
=84	=84	=84	=84
2c	2r	1cc	2r
1cc	2e	.	2g
.	2f	1dd	2a
2b	2g	.	2b
=85	=85	=85	=85
2.a	2c	1ee	1cc
.	1cc	.	.
4g	.	.	.
2f	.	[1dd	2r
[2g	[2b	.	[2gg
=86	=86	=86	=86
2g]	2b]	2dd]	2gg]
2a	1a	2cc	2ff
1e	.	1b	1ee
.	2g#	.	.
=87	=87	=87	=87
1A	1a	1a	1cc#
1e	1r	1g	2r
.	.	.	[2ee
=88	=88	=88	=88
1f	2r	1a	2ee]
.	1a	.	2dd
1e	.	1b	[1ee
.	2g#	.	.
=89	=89	=89	=89
1A	2a	1cc	2ee]
.	2a	.	4dd
.	.	.	4cc
2r	2g	1dd	2b
[2a	2f	.	2a
=90	=90	=90	=90
2a]	1e	0ee	2b
2g#	.	.	2b
1a	2r	.	1cc
.	[2a	.	.
=91	=91	=91	=91
1d	2a]	1dd	1ff
.	1b-	.	.
1f	.	[1cc	1ff
.	[2a	.	.
=92	=92	=92	=92
1c	4a]	2cc]	1ee
.	4g	.	.
.	1g	2b	.
1d	.	1a	1dd
.	2f#	.	.
=93	=93	=93	=93
0G	0g	1g	0b
.	.	2r	.
.	.	2g	.
=94	=94	=94	=94
0r	2r	2a	2r
.	2g	2b	2g
.	2f	2cc	2a
.	2d	2dd	2b
=95	=95	=95	=95
0r	2c	2ee	2cc
.	2B	2dd	2dd
.	1c	1cc	1ee
=96	=96	=96	=96
0r	2g	2b	2dd
.	2a	1a	2cc
.	1e	.	1b
.	.	2g#	.
=97	=97	=97	=97
2r	1A	[0a	1a
2c	.	.	.
2d	2r	.	1r
2e	2c	.	.
=98	=98	=98	=98
2f	2d	0a]	1r
2c	2e	.	.
4d	2.f	.	2r
4e	.	.	.
4f	.	.	2cc
4g	4e	.	.
=99	=99	=99	=99
4a	2d	0r	2dd
4b	.	.	.
2cc	2c	.	2ee
2.a	4d	.	1ff
.	4e	.	.
.	4f	.	.
4b	4g	.	.
=100	=100	=100	=100
2cc	4a	0r	1ee
.	4b	.	.
2c	1cc	.	.
[1e	.	.	1dd
.	4b	.	.
.	4a	.	.
=101	=101	=101	=101
1e]	1b	2r	2r
.	.	2g	2gg
1r	1r	2a	2ff
.	.	2b	2dd
=102	=102	=102	=102
1r	0r	2cc	2ee
.	.	2dd	2ff
2r	.	2.ee	2.gg
2G	.	.	.
.	.	4dd	4ff
=103	=103	=103	=103
2A	0r	2cc	4ee
.	.	.	4cc
2B	.	2b	1gg
2c	.	1a	.
2d	.	.	2ff#
=104	=104	=104	=104
4e	2r	1g	1gg
4f	.	.	.
4g	2c	.	.
4e	.	.	.
2f	2d	1r	2r
2e	2e	.	2g
=105	=105	=105	=105
2d	2f	0r	2a
2G	2g	.	2b
2A	2e	.	2cc
2B	[2g	.	2dd
=106	=106	=106	=106
2c	4g]	1r	2ee
.	4a	.	.
2d	2.b	.	1dd
1e	.	1g	.
.	4a	.	.
.	[2g	.	2cc#
=107	=107	=107	=107
1d	2g]	2a	2dd
.	2f#	2b	2dd
2c	1g	2cc	2ee
2B	.	2dd	2dd
=108	=108	=108	=108
2.c	[0g	1.ee	1cc
4d	.	.	.
2e	.	.	1b
2B	.	2dd	.
=109	=109	=109	=109
1c	1g]	1cc	1ee
4G	2r	1b	1dd
4A	.	.	.
4B	2g	.	.
4c	.	.	.
=110	=110	=110	=110
1d	2g	1a	2r
.	2f#	.	2dd
2r	2g	1g	2dd
2g	2e	.	2cc#
=111	=111	=111	=111
2g	2d	1a	1dd
2f#	2d	.	.
2g	1g	1b	2r
2e	.	.	2gg
=112	=112	=112	=112
2a	2r	1cc	2gg
2a	2cc	.	2ff#
1g	2cc	1dd	[1gg
.	2b	.	.
=113	=113	=113	=113
2r	2cc	1ee	1gg]
2cc	2c	.	.
2cc	2g	1dd	1gg
2b	2g	.	.
=114	=114	=114	=114
2cc	1c	1cc	2ee
2c	.	.	2ee
2g	2r	1b	1dd
2g	2g	.	.
=115	=115	=115	=115
1d	2g	1a	2r
.	2f#	.	2dd
2r	2g	1g	2dd
2g	2e	.	2cc#
=116	=116	=116	=116
2g	2d	1a	1.dd
2f#	2d	.	.
2g	1g	1b	.
2e	.	.	2gg
=117	=117	=117	=117
1a	2r	1cc	2ee
.	1cc	.	2ff#
1g	.	1dd	1gg
.	2b	.	.
=118	=118	=118	=118
2c	2g	1ee	1r
1cc	2a	.	.
.	2f	1dd	2r
2b	2g	.	[2gg
=119	=119	=119	=119
2g	2e	1cc	2gg]
2.a	2f	.	2ff
.	1g	1b	2dd
4g	.	.	.
[2g	.	.	[2ee
=120	=120	=120	=120
2g]	1d	1a	4ee]
.	.	.	4dd
2f#	.	.	1dd
2g	2e	1g	.
2e	[2g	.	2cc#
=121	=121	=121	=121
0d	2g]	0a	[0dd
.	4f	.	.
.	4e	.	.
.	1f#	.	.
=122	=122	=122	=122
0G	0g	1b	1dd]
.	.	2r	2.g
.	.	[2g	.
.	.	.	4a
=123	=123	=123	=123
0r	0r	2g]	2b
.	.	2a	2cc
.	.	2b	2dd
.	.	2cc	2ee
=124	=124	=124	=124
2r	0r	2dd	2b
1c	.	1ee	1cc
2d	.	2dd	4b
.	.	.	4a
=125	=125	=125	=125
2e	0r	0cc	2g
2f	.	.	2a
2g	.	.	2e
[2a	.	.	2f
=126	=126	=126	=126
2a]	0r	1b	1g
1g	.	.	.
.	.	1a	1d
2f#	.	.	.
=127	=127	=127	=127
2.g	2r	1g	1.dd
.	1G	.	.
4a	.	.	.
2b	.	1r	.
[2a	2A	.	2cc
=128	=128	=128	=128
4a]	2B	0r	1b
4g	.	.	.
1g	2c	.	.
.	1d	.	1a
2f#	.	.	.
=129	=129	=129	=129
1g	1e	2r	1g
.	.	1g	.
1e	2c	.	1r
.	2c	2a	.
=130	=130	=130	=130
0r	2d	2b	2r
.	2e	2cc	2g
.	2f	1dd	2a
.	2g	.	2b
=131	=131	=131	=131
1r	4c	1ee	1cc
.	4c	.	.
.	1cc	.	.
2r	.	[1dd	2.g
[2G	[2b	.	.
.	.	.	4a
=132	=132	=132	=132
2G]	2b]	2dd]	2b
2A	2.a	2cc	2cc
2B	.	1b	2dd
.	4g	.	.
2c	[2g	.	2ee
=133	=133	=133	=133
0d	2g]	0a	0dd
.	4f	.	.
.	4e	.	.
.	1f#	.	.
=134	=134	=134	=134
1e	2.g	[0g	2b
.	.	.	2b
.	4f	.	.
2c	2e	.	2cc
[2g	2B	.	2dd
=135	=135	=135	=135
4g]	0c	0g]	4ee
4f	.	.	4dd
4e	.	.	4cc
4d	.	.	4b
1e	.	.	1cc
=136	=136	=136	=136
[0d	[0G	[0g	[0b
=137	=137	=137	=137
0d]	0G]	0g]	0b]
*-	*-	*-	*-
!! Et in Spiritum
**kern	**kern	**kern	**kern	**kern	**kern
*Ibass	*Itenor	*Icalto	*Icalto	*Icant	*Icant
!Bassus	!Tenor	!Altus 2	!Altus 1	!Cantus 2	!Cantus 1
*clefF4	*clefGv2	*clefG2	*clefG2	*clefG2	*clefG2
*k[]	*k[]	*k[]	*k[]	*k[]	*k[]
*C:ion	*C:ion	*C:ion	*C:ion	*C:ion	*C:ion
*M4/2	*M4/2	*M4/2	*M4/2	*M4/2	*M4/2
=138	=138	=138	=138	=138	=138
0r	1.c	1g	0r	1.ee	1.cc
.	.	2e	.	.	.
.	2A	[2a	.	2ee	2cc
=139	=139	=139	=139	=139	=139
0r	2e	2a]	0r	2ee	2b
.	2e	2g#	.	2ee	2b
.	1A	1a	.	1ee	1a
=140	=140	=140	=140	=140	=140
0r	1.d	1f#	0r	1.dd	1.a
.	.	2f#	.	.	.
.	2G	[2g	.	2dd	2b
=141	=141	=141	=141	=141	=141
0r	2d	2g]	1r	2dd	2a
.	2d	2f#	.	2dd	2a
.	1G	1g	2r	1dd	1b
.	.	.	[2g	.	.
=142	=142	=142	=142	=142	=142
1.c	0r	1e	2g]	1.cc	0r
.	.	.	2c	.	.
.	.	2e	2g	.	.
2F	.	[2f	2a	2cc	.
=143	=143	=143	=143	=143	=143
2c	0r	2f]	1g	2cc	0r
2c	.	2e	.	2cc	.
1F	.	1f	1a	1cc	.
=144	=144	=144	=144	=144	=144
2G	2r	2d	1.g	2b	2r
1G	1B	1d	.	1b	1dd
2G	2B	2d	2g	2b	2dd
=145	=145	=145	=145	=145	=145
2E	2B	2G	2g	2b	2ee
2E	2B	2G	2g	2b	2ee
2G	2B	2.B	2g	2b	2dd
2G	2G	.	2g	2b	2dd
.	.	4c	.	.	.
=146	=146	=146	=146	=146	=146
1D	2A	1d	1f	1a	2dd
.	1d	.	.	.	1ff
2D	.	2A	2d	2a	.
2A	2c#	2A	2e	2a	[2ee
=147	=147	=147	=147	=147	=147
1D	1d	1A	1f	0a	2ee]
.	.	.	.	.	2dd
1A	2c	1A	1e	.	2ee
.	[2c	.	.	.	[2ee
=148	=148	=148	=148	=148	=148
0r	2c]	2c	0r	[0g	2ee]
.	2B	2d	.	.	2dd
.	1c	1e	.	.	1cc
=149	=149	=149	=149	=149	=149
0r	2G	2d	0r	1g_	2b
.	2B	2d	.	.	2dd
.	2c	2e	.	1g_	2cc
.	2c	2e	.	.	2cc
=150	=150	=150	=150	=150	=150
2r	2G	1d	2r	0g]	1b
1G	1B	.	1d	.	.
.	.	2g	.	.	1r
2G	2B	2g	2e	.	.
=151	=151	=151	=151	=151	=151
2F	2c	2a	2f	0r	0r
2D	1d	2a	2f	.	.
1A	.	1a	1e	.	.
.	2c#	.	.	.	.
=152	=152	=152	=152	=152	=152
0D	2d	2a	2f	0r	2r
.	2d	2f	2a	.	2dd
.	2d	2.a	2f	.	2dd
.	2d	.	2f	.	2ff
.	.	4b	.	.	.
=153	=153	=153	=153	=153	=153
0r	2c	2cc	4g	0r	2ee
.	.	.	4e	.	.
.	2A	2cc	1a	.	2ee
.	1e	1b	.	.	1ee
.	.	.	2g#	.	.
=154	=154	=154	=154	=154	=154
2r	2A	2a	2a	0r	2cc
1F	1A	1a	1cc	.	1ff
2F	2A	2a	2cc	.	2ff
=155	=155	=155	=155	=155	=155
2C	2c	2g	2cc	0r	2ee
2C	2c	2g	2cc	.	2ee
1G	1d	1g	1b	.	[1dd
=156	=156	=156	=156	=156	=156
1D	1d	1f#	1a	0r	2dd]
.	.	.	.	.	2a
1G	1B	1g	1d	.	2b
.	.	.	.	.	[2dd
=157	=157	=157	=157	=157	=157
1C	1c	1e	1g	0r	4dd]
.	.	.	.	.	4cc
.	.	.	.	.	1cc
1G	1d	1d	1g	.	.
.	.	.	.	.	2b
=158	=158	=158	=158	=158	=158
1C	2e	2.c	2r	1g	0cc
.	2c	.	2e	.	.
.	.	4c	.	.	.
1r	2A	2c	2e	2a	.
.	2A	2c	2e	2a	.
=159	=159	=159	=159	=159	=159
0r	1G	1d	1g	1b	0r
.	2c	2e	2g	2cc	.
.	2e	2g	2g	2cc	.
=160	=160	=160	=160	=160	=160
1r	2d	2g	2.a	2dd	1r
.	2d	2f#	.	2dd	.
.	.	.	4b	.	.
2r	2c	2g	1cc	1ee	2r
2c	2e	2c	.	.	2g
=161	=161	=161	=161	=161	=161
2A	2c	2e	0r	0r	2a
2A	2c	2f#	.	.	2a
2.G	2d	2g	.	.	2b
.	2d	2g	.	.	2b
4F	.	.	.	.	.
=162	=162	=162	=162	=162	=162
2E	2e	2g	0r	0r	2cc
2F	2c	2a	.	.	2cc
2D	2c	2f	.	.	2dd
2D	2B	2f	.	.	2dd
=163	=163	=163	=163	=163	=163
1C	2c	2e	2r	2r	1ee
.	2c	2g	2cc	2ee	.
1r	2d	2f#	2a	2dd	1r
.	2B	2g	2b	2dd	.
=164	=164	=164	=164	=164	=164
2r	2c	2e	2g	2cc	0r
2F	2A	2f	2a	2cc	.
2G	2B	2d	2g	2b	.
2E	2G	2e	2g	2b	.
=165	=165	=165	=165	=165	=165
1F	2A	1c	1f	1a	1r
.	2F	.	.	.	.
[1C	2G	2c	2e	1g	2r
.	[2c	[2cc	[2g	.	[2ee
=166	=166	=166	=166	=166	=166
1C]	2c]	2cc]	2g]	0r	2ee]
.	2c	2cc	2g	.	2ee
1r	2d	2a	2f#	.	2dd
.	2e	2g	2g	.	2cc
=167	=167	=167	=167	=167	=167
0r	1d	1f	2a	0r	1ff
.	.	.	2b	.	.
.	1c	2g	1cc	.	2ee
.	.	2a	.	.	2cc
=168	=168	=168	=168	=168	=168
0r	2r	2b	1g	0r	2dd
.	1c	1cc	.	.	1ee
.	.	.	2a	.	.
.	2d	4b	2b	.	[2dd
.	.	4a	.	.	.
=169	=169	=169	=169	=169	=169
0r	2e	2g	1cc	0r	4dd]
.	.	.	.	.	4cc
.	2f	1a	.	.	1cc
.	1d	.	1f	.	.
.	.	4g	.	.	2b
.	.	4f	.	.	.
=170	=170	=170	=170	=170	=170
0C	1c	1e	1g	0g	1cc
.	1c	1e	2r	.	2r
.	.	.	2c	.	2cc
=171	=171	=171	=171	=171	=171
1F	1A	1f	1c	1a	1cc
1A	1c	1e	1A	1a	1cc
=172	=172	=172	=172	=172	=172
2G	1B	2g	2d	2b	2dd
1G	.	1g	1d	1b	1dd
.	2G	.	.	.	.
2G	2B	2g	2G	2b	2dd
=173	=173	=173	=173	=173	=173
2F	2A	2a	2.c	2cc	2ff
2F	2A	2a	.	2cc	2ff
.	.	.	4d	.	.
1C	1c	2g	2e	1cc	1ee
.	.	[2g	2e	.	.
=174	=174	=174	=174	=174	=174
1G	1B	2g]	1g	2dd	2dd
.	.	1d	.	1dd	2g
2D	[1A	.	2.f	.	[1a
2D	.	2f	.	2dd	.
.	.	.	8e	.	.
.	.	.	8d	.	.
=175	=175	=175	=175	=175	=175
1A	2A]	0e	4c	0ee	1a]
.	.	.	4A	.	.
.	2c	.	1a	.	.
1E	1B	.	.	.	1b
.	.	.	2g#	.	.
=176	=176	=176	=176	=176	=176
0A	1A	1e	1a	0ee	1cc
.	1c	2r	2r	.	1ee
.	.	2e	[2cc	.	.
=177	=177	=177	=177	=177	=177
0r	1G	1g	2cc]	0r	1dd
.	.	.	2b	.	.
.	2A	2e	2a	.	2cc
.	2c	2e	2g	.	2cc
=178	=178	=178	=178	=178	=178
0r	2G	2d	2g	0r	2b
.	2G	2g	2d	.	2b
.	2d	2g	1r	.	2a
.	2d	2f#	.	.	2a
=179	=179	=179	=179	=179	=179
1C	2G	2g	2r	1ee	2g
.	2c	2c	2g	.	2gg
1G	1B	1d	1g	1dd	1gg
=180	=180	=180	=180	=180	=180
2C	2c	2e	2g	2cc	1ee
2C	2G	2e	2g	2cc	.
2G	2G	2d	2g	2b	1r
2E	2G	2e	2g	2b	.
=181	=181	=181	=181	=181	=181
1F	4A	2c	1f	2a	1r
.	4B	.	.	.	.
.	1c	2A	.	2a	.
1G	.	4B-	1d	[1g	2r
.	.	4G	.	.	.
.	2B	[2g	.	.	2dd
=182	=182	=182	=182	=182	=182
2C	1c	4g]	1c	0g]	2.ee
.	.	4f	.	.	.
1c	.	1e	.	.	.
.	.	.	.	.	4ff
.	1G	.	2r	.	2gg
2B	.	2d	[2g	.	2g
=183	=183	=183	=183	=183	=183
1A	2r	1c	2g]	1r	4a
.	.	.	.	.	4b
.	1c	.	2f	.	4cc
.	.	.	.	.	4dd
1G	.	2r	2e	1g	4ee
.	.	.	.	.	4ff
.	2B	[2g	2d	.	2gg
=184	=184	=184	=184	=184	=184
1r	1A	2g]	2e	1a	1cc
.	.	2f	2c	.	.
2r	1G	2e	1g	1b	2r
2G	.	[2d	.	.	2g
=185	=185	=185	=185	=185	=185
2F	2r	4d]	1c	1cc	2a
.	.	4c	.	.	.
2E	2G	1c	.	.	2g
1D	2A	.	1r	1dd	1f
.	2B	2B	.	.	.
=186	=186	=186	=186	=186	=186
1C	1c	4A	1e	1ee	2r
.	.	4G	.	.	.
.	.	2c	.	.	1cc
2r	1G	1d	2.g	1dd	.
2G	.	.	.	.	2b
.	.	.	4f	.	.
=187	=187	=187	=187	=187	=187
2A	2r	1r	2e	1cc	1a
2F	2A	.	2f	.	.
1G	2B	1g	[1d	1b	4g
.	.	.	.	.	4a
.	2G	.	.	.	4b
.	.	.	.	.	4cc
=188	=188	=188	=188	=188	=188
2.D	2.A	0f	1d]	0a	4dd
.	.	.	.	.	4ee
.	.	.	.	.	2.ff
4E	4G	.	.	.	.
1F	4A	.	2.c	.	.
.	4B	.	.	.	4ee
.	[2c	.	.	.	[2cc
.	.	.	4d	.	.
=189	=189	=189	=189	=189	=189
0C	2c]	0e	4e	[0g	4cc]
.	.	.	4f	.	4dd
.	4B	.	2g	.	2.ee
.	4A	.	.	.	.
.	[1G	.	1c	.	.
.	.	.	.	.	4dd
.	.	.	.	.	[2cc
=190	=190	=190	=190	=190	=190
0G	0G]	0d	2d	0g]	2cc]
.	.	.	2.g	.	4b
.	.	.	.	.	4a
.	.	.	.	.	1b
.	.	.	4f	.	.
.	.	.	2d	.	.
=191	=191	=191	=191	=191	=191
[0C	[0G	[0c	[0e	[0g	[0cc
=192	=192	=192	=192	=192	=192
0C]	0G]	0c]	0e]	0g]	0cc]
==	==	==	==	==	==
*-	*-	*-	*-	*-	*-
!!!CDT: 1525/^1526/-1594/2/2
!!!OCY: Italia
!!!AGN: Mass (Tenor)
!!!AST: renaissance, vocal
!!!ASW: Antiphon
!!!PWK: Masses, Book 3
!!!RNB: Cadence finals: G
!!!YOR: Le Opere Complete, v. 6, p. 216
!!!YOO: Rome, Italy: Fratelli Scalera
!!!END: 1992//
!!!EED: John Miller
!!!YEC: Copyright 2000, John Miller
!!!YEN: United States of America
!!!YEM: Rights to all derivative electronic formats reserved.
!!!YEM: Refer to licensing agreement for further details.
!!!YEM: This file must be accompanied by the licensing agreement.
!!!YEM: A copy of the licensing agreement may be found at http://www.music-cog.ohio-state.edu/HumdrumDatabases/Palestrina/license.txt
!!!EMD: converted to Humdrum by Bret Aarden
